X:263
T:Casey's Pig
T:Duke of Gordon's Birthday
R:Highland
S:Juergen Gier
Z:Nigel Gatherer
M:4/4
L:1/8
K:G
G2 GD EDGB|(3cBA gB A2 AB|GAGD EDGD|(3EFG DC B,G,G,D:|
gabg d2 df|gabg e2 ef|(3gab (3efg dgBG|AGAB G2 G2:|
